src/assets/images/icons/qualityEducation.svg

<svg width="45" height="46" viewBox="0 0 45 46" fill="none" xmlns="http://www.w3.org/2000/svg">
<path d="M12.041 0.631756C11.6367 0.816326 11.4434 1.0009 11.2236 1.42277C10.96 1.91496 10.9688 3.10148 11.2236 4.01554C12.2344 7.56633 16.1719 13.0331 20.5225 16.9267C24.8291 20.7851 29.127 23.2812 31.7022 23.4218C32.4492 23.457 32.5459 23.4482 33.0029 23.2284C33.3721 23.0439 33.5391 22.8945 33.7324 22.578C33.9434 22.2089 33.9697 22.0771 33.9697 21.3739C33.961 20.1698 33.4688 18.7812 32.4317 17.0761C31.9043 16.1972 31.6406 16.039 31.1221 16.2939C30.9024 16.4081 30.7881 16.54 30.7266 16.7333C30.6563 16.9882 30.7002 17.1025 31.0957 17.788C32.001 19.3788 32.4141 20.3984 32.4932 21.2421C32.5547 21.8486 32.4141 21.998 31.8164 21.9716C30.4629 21.9101 27.501 20.4423 24.8731 18.5351C22.0078 16.4433 18.7647 13.288 16.5235 10.3876C15.5127 9.08683 14.2471 7.08293 13.5791 5.74699C12.832 4.21769 12.5772 3.49699 12.5068 2.73234C12.4629 2.22258 12.4717 2.17863 12.6826 2.03801C12.9024 1.89738 12.9639 1.89738 13.5703 2.02043C14.3789 2.18742 15.4336 2.63566 16.4971 3.26847C17.4111 3.82219 17.7276 3.87492 18.0615 3.53215C18.2988 3.30363 18.3428 3.0048 18.1846 2.67082C18.0264 2.31926 16.1016 1.2382 14.8096 0.789959C14.0098 0.49992 12.5156 0.420818 12.041 0.631756Z" fill="#7FAEE6"/>
<path d="M20.2588 4.82415C19.6348 4.93841 18.6504 5.23724 18.5889 5.32513C18.5625 5.36907 20.1094 6.94231 22.0166 8.81438C23.9414 10.6952 25.5146 12.3124 25.541 12.4267C25.6553 12.8574 25.1279 13.2968 24.6973 13.1386C24.5742 13.0947 23.5898 12.1806 22.5 11.1083C16.8926 5.57122 17.3408 5.99309 17.1123 6.09856C16.998 6.1513 16.6553 6.39739 16.3564 6.65227L15.8115 7.10931L15.9609 7.33782C18.334 11.0732 22.166 15.0458 25.9102 17.665C27.3779 18.7021 27.8438 18.9833 27.9844 18.9306C28.1953 18.8427 29.0039 17.6913 29.3994 16.8915C30.0586 15.5468 30.1904 14.9491 30.1904 13.1562C30.1904 11.8115 30.1641 11.5302 29.9883 10.9238C29.25 8.36614 27.4834 6.36224 25.0752 5.3427C24.4072 5.05266 23.3613 4.7802 23.1328 4.82415C23.0449 4.84173 23.4404 5.28118 24.2402 6.02825C24.917 6.67864 25.4971 7.30266 25.5322 7.41692C25.6465 7.88274 25.1104 8.37493 24.6973 8.18157C24.6094 8.13763 23.7393 7.33782 22.7813 6.40618C21.709 5.37786 20.9619 4.71868 20.8564 4.72747C20.7686 4.73626 20.5049 4.77141 20.2588 4.82415ZM27.7471 9.48235C28.459 10.1767 28.6172 10.4491 28.4766 10.7831C28.3799 11.0204 28.0723 11.2226 27.7998 11.2226C27.7295 11.2226 27.3516 10.915 26.9736 10.5458C26.3848 9.97454 26.2793 9.83391 26.2793 9.57903C26.2793 9.20989 26.543 8.93743 26.9033 8.93743C27.1143 8.93743 27.2988 9.05169 27.7471 9.48235ZM27.835 14.5888C28.6172 15.371 28.6787 15.5292 28.3799 15.9159C28.248 16.0829 28.125 16.1445 27.8877 16.1445C27.6064 16.1445 27.4834 16.0654 26.9209 15.5029C26.3584 14.9404 26.2793 14.8173 26.2793 14.5361C26.2793 14.2988 26.3408 14.1757 26.5078 14.0439C26.8945 13.745 27.0527 13.8066 27.835 14.5888Z" fill="#7FAEE6"/>
<path d="M13.4473 11.7236C13.377 12.0488 13.3506 12.6904 13.3857 13.5077C13.4209 14.5448 13.4648 14.9228 13.6582 15.5556C14.1064 17.0497 14.8271 18.2275 15.9434 19.2909C17.499 20.7675 19.1777 21.4882 21.3047 21.5673C22.4121 21.62 23.9414 21.4794 23.8887 21.33C23.8711 21.2948 23.3086 20.8466 22.6318 20.3368C19.5029 17.9726 16.7256 15.2304 14.4141 12.207C14.001 11.6708 13.6406 11.2314 13.6055 11.2314C13.5703 11.2226 13.5 11.4511 13.4473 11.7236Z" fill="#7FAEE6"/>
<path d="M7.60254 16.1621L6.19629 17.0498L4.54395 16.5049C3.62988 16.1973 2.86523 15.9775 2.83887 16.0039C2.80371 16.0303 3.01465 16.7773 3.2959 17.6562C3.57715 18.5439 3.80566 19.3086 3.80566 19.3613C3.80566 19.4141 3.42773 20.0732 2.96191 20.8203C2.4873 21.5762 2.10938 22.209 2.10938 22.2441C2.10938 22.2705 2.8916 22.2969 3.84961 22.2969L5.58105 22.3057L6.62695 23.7031C7.19824 24.4766 7.69043 25.1094 7.72559 25.1094C7.76074 25.1094 7.96289 24.4238 8.17383 23.5889C8.38477 22.7627 8.58691 22.0156 8.62207 21.9453C8.66602 21.8574 9.28125 21.6553 10.3184 21.3828C11.2148 21.1455 11.9531 20.9258 11.9531 20.8818C11.9531 20.8467 11.3203 20.3545 10.5469 19.7832L9.14941 18.7373L9.14062 16.9971C9.14062 16.0479 9.11426 15.2656 9.0791 15.2656C9.03516 15.2656 8.37598 15.6699 7.60254 16.1621Z" fill="#3996F7"/>
<path d="M37.2656 21.207L37.2568 22.9561L35.8594 24.002C35.0859 24.5732 34.4531 25.0654 34.4531 25.1006C34.4531 25.1445 35.1914 25.3643 36.0879 25.6016C37.125 25.874 37.7402 26.0762 37.7842 26.1641C37.8193 26.2344 38.0215 26.9814 38.2324 27.8076C38.4434 28.6426 38.6455 29.3281 38.6807 29.3281C38.7158 29.3281 39.208 28.6953 39.7793 27.9219L40.8252 26.5244L42.5742 26.5156C43.9277 26.5156 44.3057 26.4893 44.2705 26.4014C44.2529 26.3486 43.8574 25.6895 43.3916 24.9512L42.5566 23.6064L43.0312 22.1387C43.5674 20.4775 43.6465 20.1875 43.541 20.1875C43.4971 20.1875 42.7324 20.4336 41.8359 20.7236L40.21 21.2686L38.8477 20.4072C38.1006 19.9326 37.4326 19.5283 37.3799 19.5107C37.292 19.4756 37.2656 19.8535 37.2656 21.207Z" fill="#3996F7"/>
<path d="M18.457 23.8789C18.1055 24.2304 18.1934 24.5029 19.7666 27.6494C20.5928 29.2841 21.3223 30.6465 21.4014 30.6816C21.7002 30.7959 22.1484 30.7343 22.3242 30.5586C22.6758 30.207 22.5879 29.9345 21.0146 26.7881C20.1885 25.1533 19.459 23.791 19.3799 23.7558C19.0811 23.6416 18.6328 23.7031 18.457 23.8789Z" fill="#3996F7"/>
<path d="M11.4258 24.582C11.1973 24.8105 11.1885 25.3994 11.417 25.6279C11.5137 25.7246 11.8213 25.83 12.1729 25.8916C14.2647 26.2607 16.418 28.0097 18.1143 30.7343C18.3691 31.1474 18.8613 32.0791 19.2217 32.8086C19.5732 33.5468 19.9248 34.1621 20.0039 34.1972C20.2939 34.3115 20.7422 34.25 20.918 34.0742C21.208 33.7841 21.1465 33.3447 20.6191 32.2109C19.0195 28.7392 16.8047 26.208 14.3086 25.0215C13.0166 24.4062 11.7861 24.2216 11.4258 24.582Z" fill="#3996F7"/>
<path d="M24.8906 24.4677C24.8291 24.4941 24.4248 25.2148 23.9941 26.0849C23.1504 27.7724 23.0537 28.124 23.3789 28.4492C23.5547 28.625 24.0029 28.6865 24.3018 28.5722C24.5215 28.4843 26.0156 25.4345 26.0156 25.0654C26.0156 24.6435 25.7607 24.4062 25.3389 24.415C25.1543 24.415 24.9522 24.4414 24.8906 24.4677Z" fill="#3996F7"/>
<path d="M31.9482 26.6123C29.7158 26.9814 27.6152 28.1504 25.875 29.9609C24.5654 31.3408 23.2031 33.5205 23.2031 34.25C23.2031 34.6982 23.4404 34.9531 23.8535 34.9531C24.3369 34.9531 24.4248 34.8828 24.7852 34.1709C25.5674 32.6064 26.9824 30.8486 28.2129 29.8994C29.7773 28.7041 31.1748 28.1943 33.6006 27.957C34.2422 27.8955 34.4531 27.7109 34.4531 27.2188C34.4531 26.6211 34.2598 26.5156 33.249 26.5244C32.7744 26.5332 32.1943 26.5684 31.9482 26.6123Z" fill="#3996F7"/>
<path d="M2.12695 32.8525L2.15332 34.2939L3.41016 34.3555C8.40234 34.5928 13.6582 35.9375 16.7871 37.7832C18.3428 38.6973 19.6875 39.8047 19.6875 40.1562C19.6875 40.4639 20.0215 41.0791 20.3467 41.3604C20.8389 41.791 21.498 41.9844 22.5 41.9844C23.502 41.9844 24.1611 41.791 24.6533 41.3604C24.9785 41.0791 25.3125 40.4639 25.3125 40.1562C25.3125 39.7959 26.877 38.5391 28.3799 37.6865C31.623 35.8672 36.7031 34.584 41.5723 34.3555L42.8467 34.2939L42.873 32.8613L42.8906 31.4375H41.9062C39.3838 31.4375 36.1318 31.9648 33.5918 32.7734C29.5049 34.0742 26.1035 36.0869 23.4053 38.8027L22.5 39.708L21.5859 38.7939C17.2002 34.3818 10.6348 31.6924 3.66504 31.4639L2.10059 31.4111L2.12695 32.8525Z" fill="#3996F7"/>
<path d="M0 37.0624V38.4599L0.290039 38.5039C0.439453 38.5302 1.2832 38.5654 2.15332 38.5917C6.40723 38.7148 10.3096 39.5849 13.4033 41.0966C15.3105 42.0371 16.0488 42.6171 17.8506 44.5947C18.0703 44.8408 18.4219 45.1308 18.6416 45.2451C19.0283 45.456 19.0547 45.456 22.2979 45.4824C24.3545 45.4999 25.6992 45.4736 25.9102 45.4208C26.4199 45.2802 27 44.8496 27.4482 44.2871C29.2588 41.9755 32.4316 40.2968 36.8262 39.3124C38.8037 38.873 41.625 38.5566 43.5762 38.5566C45.1406 38.5566 45 38.6972 45 37.0537V35.6562H43.6729C38.2324 35.6562 32.6162 36.79 28.9072 38.6445C27.1934 39.497 25.3652 40.8593 25.2598 41.3515C25.0664 42.2832 24.5479 42.8896 23.7217 43.1533C23.124 43.3466 21.876 43.3466 21.2783 43.1533C20.4521 42.8896 19.9336 42.2832 19.7402 41.3515C19.6787 41.0615 18.7207 40.2177 17.71 39.5585C16.8662 39.0136 15.3809 38.2578 14.2822 37.8271C10.8896 36.4999 5.8623 35.6562 1.34473 35.6562H0V37.0624Z" fill="#3996F7"/>
</svg>

<svg xmlns="http://www.w3.org/2000/svg" width="45" height="46" fill="none"><path fill="#7FAEE6" d="M12.041.632c-.404.184-.598.369-.817.79-.264.493-.255 1.68 0 2.594 1.01 3.55 4.948 9.017 9.299 12.91 4.306 3.86 8.604 6.355 11.18 6.496.746.035.843.026 1.3-.194.37-.184.536-.334.73-.65.21-.37.237-.5.237-1.204-.009-1.204-.501-2.593-1.538-4.298-.528-.879-.791-1.037-1.31-.782-.22.114-.334.246-.395.44-.07.254-.027.368.369 1.054.905 1.59 1.318 2.61 1.397 3.454.062.607-.079.756-.677.73-1.353-.062-4.315-1.53-6.943-3.437-2.865-2.092-6.108-5.247-8.35-8.147-1.01-1.301-2.276-3.305-2.944-4.641-.747-1.53-1.002-2.25-1.072-3.015-.044-.51-.035-.553.176-.694.22-.14.28-.14.887-.018.809.167 1.864.616 2.927 1.248.914.554 1.23.607 1.564.264.238-.228.282-.527.124-.861-.159-.352-2.083-1.433-3.375-1.881-.8-.29-2.294-.37-2.769-.158Z"/><path fill="#7FAEE6" d="M20.259 4.824c-.624.114-1.609.413-1.67.501-.026.044 1.52 1.617 3.428 3.49 1.924 1.88 3.498 3.497 3.524 3.612.114.43-.413.87-.844.712-.123-.044-1.107-.958-2.197-2.03-5.607-5.538-5.16-5.116-5.388-5.01-.114.052-.457.298-.756.553l-.545.457.15.229c2.373 3.735 6.205 7.708 9.95 10.327 1.467 1.037 1.933 1.318 2.073 1.266.211-.088 1.02-1.24 1.415-2.04.66-1.344.791-1.942.791-3.735 0-1.345-.026-1.626-.202-2.232-.738-2.558-2.505-4.562-4.913-5.581-.668-.29-1.714-.563-1.942-.519-.088.018.307.457 1.107 1.204.677.65 1.257 1.275 1.292 1.389.114.466-.422.958-.835.765-.088-.044-.958-.844-1.916-1.776-1.072-1.028-1.82-1.687-1.925-1.679a6.475 6.475 0 0 0-.597.097Zm7.488 4.658c.712.695.87.967.73 1.301-.097.237-.405.44-.677.44-.07 0-.448-.308-.826-.677-.59-.571-.695-.712-.695-.967 0-.37.264-.642.624-.642.211 0 .396.115.844.545Zm.088 5.107c.782.782.844.94.545 1.327-.132.167-.255.229-.492.229-.282 0-.405-.08-.967-.642-.563-.563-.642-.686-.642-.967 0-.237.062-.36.229-.492.387-.299.545-.237 1.327.545ZM13.447 11.724c-.07.325-.096.966-.061 1.784.035 1.037.079 1.415.272 2.048.448 1.494 1.17 2.671 2.285 3.735 1.556 1.476 3.235 2.197 5.362 2.276 1.107.053 2.636-.088 2.584-.237-.018-.035-.58-.483-1.257-.993-3.13-2.364-5.906-5.107-8.218-8.13-.413-.536-.773-.976-.809-.976-.035-.008-.105.22-.158.493Z"/><path fill="#3996F7" d="m7.603 16.162-1.407.888-1.652-.545c-.914-.308-1.679-.527-1.705-.501-.035.026.176.773.457 1.652.281.888.51 1.653.51 1.705 0 .053-.378.712-.844 1.46-.475.755-.853 1.388-.853 1.423 0 .026.783.053 1.74.053l1.732.009 1.046 1.397c.571.774 1.063 1.406 1.099 1.406.035 0 .237-.685.448-1.52.21-.826.413-1.573.448-1.644.044-.088.66-.29 1.696-.562.897-.238 1.635-.457 1.635-.501 0-.035-.633-.527-1.406-1.099l-1.398-1.046-.008-1.74c0-.95-.027-1.731-.062-1.731-.044 0-.703.404-1.476.896ZM37.266 21.207l-.01 1.75-1.397 1.045c-.773.571-1.406 1.063-1.406 1.099 0 .044.738.263 1.635.5 1.037.273 1.652.475 1.696.563.035.07.238.817.448 1.644.211.835.413 1.52.449 1.52.035 0 .527-.633 1.098-1.406l1.046-1.398 1.75-.008c1.353 0 1.73-.027 1.695-.115-.017-.052-.413-.712-.878-1.45l-.835-1.345.474-1.467c.536-1.662.616-1.951.51-1.951-.044 0-.809.246-1.705.536l-1.626.545-1.362-.862c-.747-.474-1.415-.879-1.468-.896-.088-.035-.114.343-.114 1.696ZM18.457 23.879c-.352.351-.264.624 1.31 3.77.826 1.635 1.555 2.997 1.634 3.033.3.114.747.052.923-.123.352-.352.264-.625-1.31-3.77-.825-1.636-1.555-2.998-1.634-3.033-.299-.114-.747-.053-.923.123ZM11.426 24.582c-.229.229-.238.817-.009 1.046.097.097.404.202.756.264 2.092.369 4.245 2.118 5.941 4.842.255.413.747 1.345 1.108 2.075.351.738.703 1.353.782 1.388.29.114.738.053.914-.123.29-.29.229-.73-.299-1.863-1.6-3.472-3.814-6.003-6.31-7.19-1.292-.615-2.523-.8-2.883-.439ZM24.89 24.468c-.06.026-.465.747-.896 1.617-.844 1.687-.94 2.039-.615 2.364.176.176.624.237.923.123.22-.088 1.714-3.137 1.714-3.507 0-.422-.255-.659-.677-.65-.185 0-.387.026-.448.053ZM31.948 26.612c-2.232.37-4.333 1.538-6.073 3.349-1.31 1.38-2.672 3.56-2.672 4.289 0 .448.237.703.65.703.484 0 .572-.07.932-.782.782-1.565 2.197-3.322 3.428-4.272 1.564-1.195 2.962-1.705 5.388-1.942.641-.062.852-.246.852-.738 0-.598-.193-.703-1.204-.695-.475.01-1.055.044-1.3.088Z"/><path fill="#3996F7" d="m2.127 32.852.026 1.442 1.257.062c4.992.237 10.248 1.581 13.377 3.427 1.556.914 2.9 2.022 2.9 2.373 0 .308.334.923.66 1.204.492.431 1.151.624 2.153.624s1.661-.193 2.153-.624c.326-.28.66-.896.66-1.204 0-.36 1.564-1.617 3.067-2.47 3.243-1.819 8.323-3.102 13.192-3.33l1.275-.062.026-1.433.018-1.423h-.985c-2.522 0-5.774.527-8.314 1.335-4.087 1.301-7.488 3.314-10.187 6.03l-.905.905-.914-.914c-4.386-4.412-10.951-7.102-17.921-7.33l-1.564-.053.026 1.441Z"/><path fill="#3996F7" d="M0 37.062v1.398l.29.044c.15.026.993.061 1.863.088 4.254.123 8.157.993 11.25 2.505 1.907.94 2.646 1.52 4.448 3.498.22.246.57.536.79.65.387.211.414.211 3.657.237 2.057.018 3.401-.008 3.612-.061.51-.14 1.09-.571 1.538-1.134 1.81-2.312 4.984-3.99 9.378-4.975 1.978-.439 4.799-.755 6.75-.755 1.565 0 1.424.14 1.424-1.503v-1.398h-1.327c-5.44 0-11.057 1.134-14.766 2.989-1.714.852-3.542 2.214-3.647 2.706-.194.932-.712 1.539-1.538 1.802-.598.194-1.846.194-2.444 0-.826-.263-1.344-.87-1.538-1.801-.061-.29-1.02-1.134-2.03-1.793-.844-.545-2.33-1.301-3.428-1.732-3.392-1.327-8.42-2.17-12.937-2.17H0v1.405Z"/></svg>
